!!!COM: Mozart, Wolfgang Amadeus
!!!OTL: String Quartet No. 6 in B-flat Major
!!!OMD: Allegro
!!!OMV: 2
!!!SCT1: K<sup>1</sup> 159
!!!SCA: Chronologisch-thematisches Verzeichnis sämtlicher Tonwerke Wolfgang Amade Mozarts (L. von Köchel; 1862, 2/1905, 3/1937, 1947)
!!!SCT2: K<sup>6</sup> 159
!!!YOR: Breitkopf & Härtel Edition
!!!ENC: Edmund Correia, Jr.
!!!CDT: 1756/1/27/-1791/12/5/
!!!OCY: Österreich
!!!YEC: Copyright (c) 1994, 2000 Center for Computer Assisted Research in the Humanities
!!!YEM: Rights to all derivative editions reserved.
!!!YEM: Refer to licensing agreement for further details.
!!!YEN: United States of America
**kern	**dynam	**kern	**dynam	**kern	**dynam	**kern	**dynam
*I:Violoncello	*I:Violoncello	*I:Viola	*I:Viola	*I:Violino 2	*I:Violino 2	*I:Violino 1	*I:Violino 1
*>[A,A,B,B]	*	*>[A,A,B,B]	*	*>[A,A,B,B]	*	*>[A,A,B,B]	*
*>A	*	*>A	*	*>A	*	*>A	*
*clefF4	*	*clefC3	*	*clefG2	*	*clefG2	*
*k[b-e-]	*	*k[b-e-]	*	*k[b-e-]	*	*k[b-e-]	*
*g:	*	*g:	*	*g:	*	*g:	*
*M3/4	*	*M3/4	*	*M3/4	*	*M3/4	*
! Allegro	!	! Allegro	!	! Allegro	!	! Allegro	!
4GG/	f	8G'/L	f	8b-'/L	f	4gg\	f
.	.	8B-'/	.	8g'/	.	.	.
4r	.	8d'/	.	8b-'/	.	4dd\	.
.	.	8B-'/	.	8g'/	.	.	.
4r	.	8d'/	.	8b-'/	.	4dd\	.
.	.	8B-'/J	.	8g'/J	.	.	.
=2	=2	=2	=2	=2	=2	=2	=2
4GG/	.	8d'/L	.	8b-'/L	.	(8.ddt\L	.
.	.	8B-'/	.	8g'/	.	.	.
.	.	.	.	.	.	32cc#\LL	.
.	.	.	.	.	.	32dd\JJJ)	.
4BB-/	.	8G'/	.	8d'/	.	4r	.
.	.	8B-'/	.	8g'/	.	.	.
4GG/	.	8d'/	.	8b-'/	.	4r	.
.	.	8B-'/J	.	8g'/J	.	.	.
=3	=3	=3	=3	=3	=3	=3	=3
4D\	.	8A'\L	.	8cc'\L	.	4aa\	.
.	.	8f#'\	.	8a'\	.	.	.
4r	.	8a'\	.	8cc'\	.	4dd\	.
.	.	8f#'\	.	8a'\	.	.	.
4r	.	8a'\	.	8cc'\	.	4dd\	.
.	.	8f#'\J	.	8a'\J	.	.	.
=4	=4	=4	=4	=4	=4	=4	=4
4D\	.	8a'\L	.	8cc'/L	.	(8.ddt\L	.
.	.	8f#'\	.	8a'/	.	.	.
.	.	.	.	.	.	32cc#\LL	.
.	.	.	.	.	.	32dd\JJJ)	.
4F#\	.	8A'\	.	8d'/	.	4r	.
.	.	8d'\	.	8a'/	.	.	.
4D\	.	8a'\	.	8cc'/	.	4r	.
.	.	8f#'\J	.	8a'/J	.	.	.
=5	=5	=5	=5	=5	=5	=5	=5
(4G\	.	2d\	.	(4b-\	.	(4bb-\	.
4Fn\)	.	.	.	4a/)	.	4aa\)	.
4r	.	4r	.	4d'/	.	4dd'\	.
=6	=6	=6	=6	=6	=6	=6	=6
(4E-\	.	2B-/	.	(4g/	.	(4gg\	.
4D\)	.	.	.	4f/)	.	4ff\)	.
4r	.	4r	.	4B-'/	.	4b-'\	.
=7	=7	=7	=7	=7	=7	=7	=7
(4E-\	.	2B-/	.	(4g/	.	(4gg\	.
4D\)	.	.	.	4f/)	.	4ff\)	.
4r	.	4r	.	4B-'/	.	4b-'\	.
=8	=8	=8	=8	=8	=8	=8	=8
(4C/	.	2G/	.	(4e-/	.	(4ee-\	.
4BB-/)	.	.	.	4d/)	.	4dd\)	.
(8.d\L	.	(8.d\L	.	(8.dd\Lxx	.	(8.dd\L	.
16c\Jk)	.	16c\Jk)	.	16cc\Jk)xx	.	16cc\Jk)	.
=9	=9	=9	=9	=9	=9	=9	=9
4B-\	.	4B-/	.	4b-\	.	4b-\	.
4A\	.	4A/	.	4a/	.	4a/	.
4G\	.	4G/	.	4g/	.	4g/	.
=10	=10	=10	=10	=10	=10	=10	=10
(4F#\	.	(4F#/	.	(4f#/	.	(4f#/	.
4d\)	.	4d\)	.	4dd\)	.	4dd\)	.
4Fn'\	.	4Fn'/	.	4fn'/	.	4fn'/	.
=11	=11	=11	=11	=11	=11	=11	=11
(4En\	.	(4En/	.	(4en/	.	(4en/	.
4c\)	.	4c\)	.	4cc\)	.	4cc\)	.
4E-'\	.	4E-'/	.	4e-'/xx	.	4e-'/xx	.
=12	=12	=12	=12	=12	=12	=12	=12
4D'\	.	4D'/	.	4d'/	.	4d'/	.
4d'\	.	4d'\	.	4dd'\	.	4dd'\	.
4r	.	4r	.	4r	.	4r	.
=13	=13	=13	=13	=13	=13	=13	=13
2.r	.	2.r	.	(4Bn/	p	(4bn\	p
.	.	.	.	4c/	.	4cc\	.
.	.	.	.	4d/)	.	4dd\)	.
=14	=14	=14	=14	=14	=14	=14	=14
2.r	.	2.r	.	(4e-/	.	(4ee-\	.
.	.	.	.	4c/	.	4cc\	.
.	.	.	.	4A/)	.	4a/)	.
=15	=15	=15	=15	=15	=15	=15	=15
4r	.	4r	.	(4B-/	.	(4b-\	.
(4B-\	p	(4d\	p	4g/	.	4gg\	.
4A\	.	4c\	.	4f/	.	4ff\	.
=16	=16	=16	=16	=16	=16	=16	=16
4G\	.	4B-/	.	4en/	.	4een\	.
4A\)	.	4c\)	.	4f/	.	4ff\	.
4r	.	4r	.	4A/)	.	4a/)	.
=17	=17	=17	=17	=17	=17	=17	=17
4r	.	4r	.	(4G/	.	(4g/	.
(4G\	.	(4B-/	.	4e-/	.	4ee-\	.
4F\	.	4A/	.	4d/	.	4dd\	.
=18	=18	=18	=18	=18	=18	=18	=18
4En\	.	4G/	.	4c#/	.	4cc#\	.
4F\)	.	4A/)	.	4d/)	.	4dd\	.
4r	.	(4F/	.	4r	.	4f/)	.
=19	=19	=19	=19	=19	=19	=19	=19
4r	.	4E-/	.	4r	.	(4e-/	.
(4E-\	.	4G/	.	(4cn/	.	4ccn\	.
4D\	.	4F/	.	4B-/	.	4b-\	.
=20	=20	=20	=20	=20	=20	=20	=20
4C/	.	4E-/	.	4A/	.	4a/	.
4D\)	.	4F/)	.	4B-/)	.	4b-\	.
4r	.	4r	.	4r	.	4ff\)	.
=21	=21	=21	=21	=21	=21	=21	=21
8C/L	f	8g\L	f	8b-\L	f	2.een\	f
8C/	.	8g\	.	8b-\	.	.	.
8C/	.	8g\	.	8b-\	.	.	.
8C/	.	8g\	.	8b-\	.	.	.
8C/	.	8g\	.	8b-\	.	.	.
8C/J	.	8g\J	.	8b-\J	.	.	.
=22	=22	=22	=22	=22	=22	=22	=22
8En\L	.	8c\L	.	8g/L	.	2.bb-\	.
8E\	.	8c\	.	8g/	.	.	.
8E\	.	8c\	.	8g/	.	.	.
8E\	.	8c\	.	8g/	.	.	.
8E\	.	8c\	.	8g/	.	.	.
8E\J	.	8c\J	.	8g/J	.	.	.
=23	=23	=23	=23	=23	=23	=23	=23
8F\L	.	8c\L	.	8f/L	.	2.aa\	.
8F\	.	8c\	.	8f/	.	.	.
8F\	.	8c\	.	8f/	.	.	.
8F\	.	8c\	.	8f/	.	.	.
8F\	.	8c\	.	8f/	.	.	.
8F\J	.	8c\J	.	8f/J	.	.	.
=24	=24	=24	=24	=24	=24	=24	=24
8A\L	.	8f\L	.	8cc\L	.	2.ee-\	.
8A\	.	8f\	.	8cc\	.	.	.
8A\	.	8f\	.	8cc\	.	.	.
8A\	.	8f\	.	8cc\	.	.	.
8A\	.	8f\	.	8cc\	.	.	.
8A\J	.	8f\J	.	8cc\J	.	.	.
=25	=25	=25	=25	=25	=25	=25	=25
4B-\	.	4f\	.	4b-\	.	4dd\	.
4r	.	4r	.	4r	.	(16bb-\LL	.
.	.	.	.	.	.	16aa\	.
.	.	.	.	.	.	16gg\	.
.	.	.	.	.	.	16ff\JJ	.
4r	.	4r	.	4r	.	16ee-\LL	.
.	.	.	.	.	.	16dd\	.
.	.	.	.	.	.	16cc\	.
.	.	.	.	.	.	16b-\JJ)	.
=26	=26	=26	=26	=26	=26	=26	=26
(2F\	.	(2A-/	.	8B-/	.	(2a-/	.
.	.	.	.	4B-/	.	.	.
.	.	.	.	4B-/	.	.	.
4D\)	.	4F#/)	.	.	.	4f#/)	.
.	.	.	.	[8B-/	.	.	.
=27	=27	=27	=27	=27	=27	=27	=27
4E-'\	.	4G'/	.	4B-/]	.	4g/	.
4r	.	4r	.	4r	.	(16bb-\LL	.
.	.	.	.	.	.	16aa\	.
.	.	.	.	.	.	16gg\	.
.	.	.	.	.	.	16ff\JJ	.
4r	.	4r	.	4r	.	16ee-\LL	.
.	.	.	.	.	.	16dd\	.
.	.	.	.	.	.	16cc\	.
.	.	.	.	.	.	16b-\JJ)	.
=28	=28	=28	=28	=28	=28	=28	=28
(2F\	.	(2A-/	.	8B-/	.	(2a-/	.
.	.	.	.	4B-/	.	.	.
.	.	.	.	4B-/	.	.	.
4D\)	.	4F#/)	.	.	.	4f#/)	.
.	.	.	.	[8B-/	.	.	.
=29	=29	=29	=29	=29	=29	=29	=29
4E-\	.	4G/	.	4B-/]	.	4g/	.
4r	.	4r	.	4r	.	4r	.
4r	.	4r	.	4r	.	4r	.
=30	=30	=30	=30	=30	=30	=30	=30
2.r	.	2.r	.	(4Bn/	p	(4bn\	p
.	.	.	.	4c/)	.	4cc\)	.
.	.	.	.	(4d/	.	(4dd\	.
=31	=31	=31	=31	=31	=31	=31	=31
2.r	.	2.r	.	4e-/)	.	4ee-\)	.
.	.	.	.	(4f#/	.	(4ff#\	.
.	.	.	.	4g/)	.	4gg\)	.
=32	=32	=32	=32	=32	=32	=32	=32
2.r	.	8Fn/L	p	4d/	.	4ffn\	.
.	.	8F/	.	.	.	.	.
.	.	8F/	.	8r	.	8r	.
.	.	8F/	.	8dd'\L	.	8ff'\L	.
.	.	8F/	.	8dd'\	.	8ff'\	.
.	.	8F/J	.	8dd'\J	.	8ff'\J	.
=33	=33	=33	=33	=33	=33	=33	=33
2.r	.	8F/L	.	(4ff\	.	(4bb-\	.
.	.	8F/	.	.	.	.	.
.	.	8F/	.	4dd\	.	4ff\	.
.	.	8F/	.	.	.	.	.
.	.	8F/	.	4bn\)	.	4dd\)	.
.	.	8F/J	.	.	.	.	.
=34	=34	=34	=34	=34	=34	=34	=34
2.r	.	8F/L	.	4cc\	.	4ee-\	.
.	.	8F/	.	.	.	.	.
.	.	8F/	.	8r	.	8r	.
.	.	8F/	.	8a'/L	.	8cc'\L	.
.	.	8F/	.	8a'/	.	8cc'\	.
.	.	8F/J	.	8a'/J	.	8cc'\J	.
=35	=35	=35	=35	=35	=35	=35	=35
2.r	.	8F/L	.	(4cc\	.	(4ee-\	.
.	.	8F/	.	.	.	.	.
.	.	8F/	.	4e-/	.	4cc\	.
.	.	8F/	.	.	.	.	.
.	.	8F/	.	4c/)	.	4a/)	.
.	.	8F/J	.	.	.	.	.
=36	=36	=36	=36	=36	=36	=36	=36
4BB-/	f	4B-/	.	4d/	.	8b-/L	f
.	.	.	.	.	.	8B-/	.
4D\	.	4r	.	4r	.	8B-/	.
.	.	.	.	.	.	8B-/	.
4BB-/	.	4r	.	4r	.	8B-/	.
.	.	.	.	.	.	8B-/J	.
=37	=37	=37	=37	=37	=37	=37	=37
!	!	!	!	!	!	! 16cP/	!
4F\	.	4F/	f	8r	.	(8B-p/L	.
.	.	.	.	8c/L	f	16A/L	.
.	.	.	.	.	.	16B-/JJ)	.
4FF/	.	4A/	.	8c/	.	4A/	.
.	.	.	.	8c/	.	.	.
4r	.	4F/	.	8c/	.	4r	.
.	.	.	.	8c/J	.	.	.
=38	=38	=38	=38	=38	=38	=38	=38
!	!	!	!	! 16dP/	!	!	!
4BB-/	.	4B-/	.	(8cp/L	.	8r	.
.	.	.	.	16B-/L	.	8d/L	.
.	.	.	.	16c/JJ)	.	.	.
4D\	.	4B-/	.	4B-/	.	8d/	.
.	.	.	.	.	.	8d/	.
4BB-/	.	4r	.	4r	.	8d/	.
.	.	.	.	.	.	8d/J	.
=39	=39	=39	=39	=39	=39	=39	=39
!	!	!	!	!	!	! 16e-P/	!
4C/	.	2A/	.	8r	.	(8dp/L	.
.	.	.	.	8e-/L	.	16c/L	.
.	.	.	.	.	.	16d/JJ)	.
4c\	.	.	.	8e-/	.	4c/	.
.	.	.	.	8e-/	.	.	.
4r	.	4c\	.	8e-/	.	4r	.
.	.	.	.	8e-/J	.	.	.
=40	=40	=40	=40	=40	=40	=40	=40
!	!	! 16dP/	!	! 16fP/	!	!	!
4D\	.	(8cp\L	.	(8e-p/L	.	8r	.
.	.	16B-\L	.	16d/L	.	8f/L	.
.	.	16c\JJ)	.	16e-/JJ)	.	.	.
4F\	.	4B-/	.	4d/	.	8f/	.
.	.	.	.	.	.	8f/	.
4D\	.	[4b-\	.	4r	.	8f/	.
.	.	.	.	.	.	8f/J	.
=41	=41	=41	=41	=41	=41	=41	=41
!	!	!	!	!	!	! 16gP/	!
4E-\	.	4b-\]	.	8r	.	(8fp/L	.
.	.	.	.	8g/L	.	16e-/L	.
.	.	.	.	.	.	16f/JJ)	.
4C/	.	8r	.	8g/	.	8e-\L	.
.	.	8c\L	.	8g/	.	8ee-\	.
4r	.	8c\	.	8g/	.	8ee-\	.
.	.	8c\J	.	8g/J	.	8ee-\J	.
=42	=42	=42	=42	=42	=42	=42	=42
4F\	.	4c\	.	4f/	.	8aa\L	.
.	.	.	.	.	.	8ee-\	.
4A\	.	4r	.	8r	.	8ccc\	.
.	.	.	.	8f/L	.	8ee-\	.
4c\	.	4r	.	8f/	.	8eee-\	.
.	.	.	.	8f/J	.	8ee-\J	.
=43	=43	=43	=43	=43	=43	=43	=43
4A\	.	4F/	.	8a/L	.	8ccc\L	.
.	.	.	.	8f/	.	8ee-\	.
4F\	.	4A/	.	8cc/	.	8aa\	.
.	.	.	.	8f/	.	8ee-\	.
4r	.	4c\	.	8ee-/	.	8ee-\	.
.	.	.	.	8f/J	.	8ee-\J	.
=44	=44	=44	=44	=44	=44	=44	=44
4FF/	.	4A/	.	8cc/L	.	8aa\L	.
.	.	.	.	8f/	.	8ee-\	.
4AA/	.	4F/	.	8a/	.	8ccc\	.
.	.	.	.	8f/	.	8ee-\	.
4C/	.	4r	.	8f/	.	8eee-\	.
.	.	.	.	8f/J	.	8ee-\J	.
=45	=45	=45	=45	=45	=45	=45	=45
4AA/	.	4f\	.	8a/L	.	8ccc\L	.
.	.	.	.	8f/	.	8ee-\	.
4FF/	.	4a\	.	8cc/	.	8aa\	.
.	.	.	.	8f/	.	8ee-\	.
4r	.	4cc\	.	8ee-/	.	8ee-\	.
.	.	.	.	8f/J	.	8ee-\J	.
=46	=46	=46	=46	=46	=46	=46	=46
4F\	.	4a\	.	8cc/L	.	8aa\L	.
.	.	.	.	8f/	.	8ee-\	.
4A\	.	4f\	.	8a/	.	8ccc\	.
.	.	.	.	8f/	.	8ee-\	.
4c\	.	4a\	.	8f/	.	8eee-\	.
.	.	.	.	8f/J	.	8ee-\J	.
=47	=47	=47	=47	=47	=47	=47	=47
4B-\	.	4b-\	.	4ff\	.	8ddd\L	.
.	.	.	.	.	.	8b-\	.
4r	.	4r	.	4r	.	8cc\	.
.	.	.	.	.	.	8dd\	.
4r	.	4r	.	4r	.	8ee-\	.
.	.	.	.	.	.	8ff\J	.
=48	=48	=48	=48	=48	=48	=48	=48
(4D\	.	(4a\	.	(4cc\	.	(4ff#\	.
4E-\)	.	4g\)	.	4b-\)	.	4gg\)	.
4r	.	4r	.	4r	.	4r	.
=49	=49	=49	=49	=49	=49	=49	=49
4E-\	.	4b-\	.	4ee-\	.	4gg\	.
4F\	.	4B-/	.	4dd\	.	4ffn\	.
4FF/	.	4e-\	.	4cc/ 4f/	.	4aa\ 4cc\ 4f\	.
=50	=50	=50	=50	=50	=50	=50	=50
4BB-/	.	4d\	.	4b-/ 4d/	.	8bb-\ 8dd\ 8f\	.
.	.	.	.	.	.	8b-\L	.
4r	.	4r	.	4r	.	8cc\	.
.	.	.	.	.	.	8dd\	.
4r	.	4r	.	4r	.	8ee-\	.
.	.	.	.	.	.	8ff\J	.
=51	=51	=51	=51	=51	=51	=51	=51
(4D\	.	(4a\	.	(4cc\	.	(4ff#\	.
4E-\)	.	4g\)	.	4b-\)	.	4gg\)	.
4r	.	4r	.	4r	.	4r	.
=52	=52	=52	=52	=52	=52	=52	=52
4E-\	.	4b-\	.	4ee-\	.	4gg\	.
4F\	.	4B-/	.	4dd\	.	4ffn\	.
4FF/	.	4e-\	.	4cc/ 4f/	.	4aa\ 4cc\ 4f\	.
=53	=53	=53	=53	=53	=53	=53	=53
4BB-/	.	4d\	.	4b-/ 4d/	.	4bb-\ 4dd\ 4f\	.
4r	.	4r	.	4r	.	4r	.
4r	.	4r	.	4f'/	.	4f'/	.
=54	=54	=54	=54	=54	=54	=54	=54
(4B-\	.	2f\	.	(4b-\	.	(4dd-\	.
4F\)	.	.	.	4a/)	.	4cc\)	.
4r	.	4r	.	4f'/	.	4f'/	.
=55	=55	=55	=55	=55	=55	=55	=55
(4A\	.	2f\	.	(4cc\	.	(4ee-\	.
4B-\)	.	.	.	4b-\)	.	4dd-\)	.
4r	.	4r	.	4f'/	.	4f'/	.
=56	=56	=56	=56	=56	=56	=56	=56
(4c\	.	(4a\	.	(4ee-\	.	(4gg-\	.
4d-\)	.	4b-\)	.	4dd-\)	.	4ff\)	.
4r	.	4r	.	4b-'\	.	4b-'\	.
=57	=57	=57	=57	=57	=57	=57	=57
(4En\	.	(4en\	.	(4bb-\	.	(4ddd-\	.
4F\)	.	4f\)	.	4aa\)	.	4ccc\)	.
4r	.	4r	.	(4f#/	.	4r	.
=58	=58	=58	=58	=58	=58	=58	=58
2.r	.	2.r	.	4g/	.	2.r	.
.	.	.	.	4a/	.	.	.
.	.	.	.	4b-\)	.	.	.
=59	=59	=59	=59	=59	=59	=59	=59
4En\	.	(8B-/L	.	4c/	.	2.r	.
.	.	8G/	.	.	.	.	.
4E\	.	8B-/	.	(8.c/L	.	.	.
.	.	8G/	.	.	.	.	.
.	.	.	.	16d/k)	.	.	.
4E\	.	8B-/	.	(8.c/	.	.	.
.	.	8G/J)	.	.	.	.	.
.	.	.	.	16d/Jk)	.	.	.
=60	=60	=60	=60	=60	=60	=60	=60
(4F\	.	(4A/	.	(4c/	.	2.r	.
4A\	.	4e-\	.	4g/	.	.	.
4B-\)	.	4d\)	.	4f/)	.	.	.
=61	=61	=61	=61	=61	=61	=61	=61
!	!	! 16dP/	!	! 16fP/	!	!	!
(4E-\	.	(4cp\	.	(4e-p/	.	4r	.
4F\	.	4B-/	.	4d/	.	4r	.
4D\)	.	4A/)	.	4c/)	.	(4ff#\	.
=62	=62	=62	=62	=62	=62	=62	=62
(4E-\	.	(4G/	.	(4B-/	.	4gg\	.
4F\	.	4c\	.	4e-/	.	4aa\	.
4G\)	.	4B-/)	.	4d/)	.	4bb-\)	.
=63	=63	=63	=63	=63	=63	=63	=63
4En\	.	(8g\L	.	(8b-/L	.	4cc\	.
.	.	8en\	.	8g/	.	.	.
4E\	.	8g\	.	8b-/	.	(8.cc\L	.
.	.	8e\	.	8g/	.	.	.
.	.	.	.	.	.	16dd\k)	.
4E\	.	8g\	.	8b-/	.	(8.cc\	.
.	.	8B-\J)	.	8g/J)	.	.	.
.	.	.	.	.	.	16dd\Jk)	.
=64	=64	=64	=64	=64	=64	=64	=64
(4E-\	.	(4A/	.	(4f/	.	(4cc\	.
4AA/	.	4c\	.	4ee-\	.	4gg\	.
4BB-/)	.	4d\)	.	4dd\)	.	4ff\)	.
=65	=65	=65	=65	=65	=65	=65	=65
!	!	!	!	! 16ddP/	!	! 16ffP/	!
4E-\	.	4g\	.	4ccp\	.	4ee-p\	.
4F\	.	4f\	.	4b-\	.	4dd\	.
4FF/	.	4e-\	.	4a/	.	4cc\	.
=66	=66	=66	=66	=66	=66	=66	=66
4BB-/	.	4d'\	.	4b-\	.	4b-\	.
4r	.	4r	.	(16g/LK	p	(16gg\LK	p
.	.	.	.	8.f/J)	.	8.ff\J)	.
4B-'\	p	4d'\	p	(16en/LK	.	(16een\LK	.
.	.	.	.	8.f/J)	.	8.ff\J)	.
=67	=67	=67	=67	=67	=67	=67	=67
4A'\	.	4c'\	.	(16g/LK	.	(16gg\LK	.
.	.	.	.	8.f/J)	.	8.ff\J)	.
4r	.	4r	.	(16en/LK	.	(16een\LK	.
.	.	.	.	8.f/J)	.	8.ff\J)	.
4c'\	.	4e-'\	.	(16g/LK	.	(16gg\LK	.
.	.	.	.	8.f/J)	.	8.ff\J)	.
=68	=68	=68	=68	=68	=68	=68	=68
4B-'\	.	4d'\	.	(16en/LK	.	(16een\LK	.
.	.	.	.	8.f/J)	.	8.ff\J)	.
4r	.	4r	.	(16b-/LK	.	(16bb-\LK	.
.	.	.	.	8.a/J)	.	8.aa\J)	.
4D'\	.	4B-'/	.	(16g/LK	.	(16gg\LK	.
.	.	.	.	8.f/J)	.	8.ff\J)	.
=69	=69	=69	=69	=69	=69	=69	=69
4C'/	.	(2G/	.	(16d/LK	.	(16dd\LK	.
.	.	.	.	8.e-/J)	.	8.ee-\J)	.
4r	.	.	.	(16Bn/LK	.	(16bn\LK	.
.	.	.	.	8.c/J)	.	8.cc\J)	.
4FF'/	.	4A/)	.	(16f/LK	.	(16ff\LK	.
.	.	.	.	8.e-/J)	.	8.ee-\J)	.
=70	=70	=70	=70	=70	=70	=70	=70
4BB-'/	.	(16A/LK	.	(16c#/LK	.	(16cc#\LK	.
.	.	8.B-/J)	.	8.d/J)	.	8.dd\J)	.
4r	.	4r	.	(16en/LK	.	(16een\LK	.
.	.	.	.	8.f/J)	.	8.ff\J)	.
4B-'\	.	4d'\	.	(16g/LK	.	(16gg\LK	.
.	.	.	.	8.f/J)	.	8.ff\J)	.
=71	=71	=71	=71	=71	=71	=71	=71
4A'\	.	4c'\	.	(16en/LK	.	(16een\LK	.
.	.	.	.	8.f/J)	.	8.ff\J)	.
4r	.	4r	.	(16g/LK	.	(16gg\LK	.
.	.	.	.	8.f/J)	.	8.ff\J)	.
4c'\	.	4e-'\	.	(16e/LK	.	(16ee\LK	.
.	.	.	.	8.f/J)	.	8.ff\J)	.
=72	=72	=72	=72	=72	=72	=72	=72
4B-'\	.	4d\	.	(16g/LK	.	(16gg\LK	.
.	.	.	.	8.f/J)	.	8.ff\J)	.
4r	.	(16g\LK	.	(16b-/LK	.	(16bb-\LK	.
.	.	8.f\J)	.	8.a/J)	.	8.aa\J)	.
4r	.	(16e-\LK	.	(16g/LK	.	(16gg\LK	.
.	.	8.d\J)	.	8.f/J)	.	8.ff\J)	.
=73	=73	=73	=73	=73	=73	=73	=73
4E-\	.	(16d\LK	.	(16f#/LK	.	(16ff#\LK	.
.	.	8.e-\J)	.	8.g/J)	.	8.gg\J)	.
4F\	.	(16d\LK	.	(16fn/LK	.	(16ffn\LK	.
.	.	8.c\J)	.	8.e-/J)	.	8.ee-\J)	.
4FF/	.	(16B-/LK	.	(16d/LK	.	(16dd\LK	.
.	.	8.A/J)	.	8.c/J)	.	8.cc\J)	.
=74	=74	=74	=74	=74	=74	=74	=74
4BB-/	f	(16B-\LL	f	8B-/	.	8b-\	.
.	.	16c\	.	.	.	.	.
.	.	16d\	.	4bb-\	f	4ddd\	f
.	.	16e-\JJ)	.	.	.	.	.
8D/L	.	4f'\	.	.	.	.	.
8C/	.	.	.	4bb-\	.	4ddd\	.
8D/	.	4r	.	.	.	.	.
8BB-/J	.	.	.	8bb-\	.	8ddd\	.
=75	=75	=75	=75	=75	=75	=75	=75
4F\	.	(16a\LL	.	8r	.	8r	.
.	.	16g\	.	.	.	.	.
.	.	16f\	.	4aa\	.	4ccc\	.
.	.	16e-\JJ)	.	.	.	.	.
8F#\L	.	4d'\	.	.	.	.	.
8En\	.	.	.	4aa\	.	4ccc\	.
8F#\	.	4r	.	.	.	.	.
8D\J	.	.	.	8aa\	.	8ccc\	.
=76	=76	=76	=76	=76	=76	=76	=76
4G\	.	(16G/LL	.	8r	.	8r	.
.	.	16A/	.	.	.	.	.
.	.	16B-/	.	4gg\	.	4bb-\	.
.	.	16c/JJ)	.	.	.	.	.
8BB-/L	.	4d'\	.	.	.	.	.
8AA/	.	.	.	4gg\	.	4bb-\	.
8BB-/	.	4r	.	.	.	.	.
8GG/J	.	.	.	8gg\	.	8bb-\	.
=77	=77	=77	=77	=77	=77	=77	=77
4D\	.	(16f\LL	.	8r	.	8r	.
.	.	16e-\	.	.	.	.	.
.	.	16d\	.	4ff\	.	4aa-\	.
.	.	16c\JJ)	.	.	.	.	.
8D/L	.	4B-'/	.	.	.	.	.
8C/	.	.	.	4ff\	.	4aa-\	.
8D/	.	4r	.	.	.	.	.
8BB-/J	.	.	.	8ff\	.	8aa-\	.
=78	=78	=78	=78	=78	=78	=78	=78
4E-\	.	(16e-\LL	.	8r	.	8r	.
.	.	16f\	.	.	.	.	.
.	.	16g\	.	4ee-\	.	4gg\	.
.	.	16a\JJ)	.	.	.	.	.
8G\L	.	4b-'\	.	.	.	.	.
8F\	.	.	.	4ee-\	.	4gg\	.
8G\	.	4r	.	.	.	.	.
8E-\J	.	.	.	8ee-\	.	8gg\	.
=79	=79	=79	=79	=79	=79	=79	=79
4G\	.	(16d/LL	.	8r	.	8r	.
.	.	16c/	.	.	.	.	.
.	.	16Bn/	.	4dd\	.	4ffn\	.
.	.	16A/JJ)	.	.	.	.	.
8BBn/L	.	4G'/	.	.	.	.	.
8AA/	.	.	.	4dd\	.	4ff\	.
8BB/	.	4r	.	.	.	.	.
8GG/J	.	.	.	8dd\	.	8ff\	.
=80	=80	=80	=80	=80	=80	=80	=80
4C/	.	8g\L	.	8ee-\L	.	8ee-\L	.
.	.	8f\	.	8dd\	.	8dd\	.
4r	.	8e-\	.	8cc\	.	8cc\	.
.	.	8d\	.	8b-\	.	8b-\	.
4r	.	8c\	.	8a\	.	8a\	.
.	.	8B-\J	.	8g\J	.	8g\J	.
=81	=81	=81	=81	=81	=81	=81	=81
(4C/	.	(4A/	.	4d/	.	8f#/L	.
.	.	.	.	.	.	8dd/	.
4BB-/	.	4B-/	.	4dd\	.	8g/	.
.	.	.	.	.	.	8dd/	.
4AA/	.	4c\	.	4dd\	.	8a/	.
.	.	.	.	.	.	8dd/J	.
=82	=82	=82	=82	=82	=82	=82	=82
4GG/	.	4d\	.	(4dd\	.	8b-\L	.
.	.	.	.	.	.	8dd\	.
4AA/	.	4c\	.	4ff#\	.	8a\	.
.	.	.	.	.	.	8dd\	.
4BB-/)	.	4B-/)	.	4gg\)	.	8g\	.
.	.	.	.	.	.	8dd\J	.
=83	=83	=83	=83	=83	=83	=83	=83
(4C/	.	(4A/	.	4d/	.	8f#/L	.
.	.	.	.	.	.	8dd/	.
4BB-/	.	4B-/	.	4dd\	.	8g/	.
.	.	.	.	.	.	8dd/	.
4AA/	.	4c\	.	4dd\	.	8a/	.
.	.	.	.	.	.	8dd/J	.
=84	=84	=84	=84	=84	=84	=84	=84
4GG/	.	4d\	.	(4dd\	.	8b-\L	.
.	.	.	.	.	.	8dd\	.
4AA/	.	4c\	.	4ff#\	.	8a\	.
.	.	.	.	.	.	8dd\	.
4BB-/)	.	4B-/)	.	4gg\)	.	8g\	.
.	.	.	.	.	.	8dd\J	.
=85	=85	=85	=85	=85	=85	=85	=85
4F#'\	.	4f#'\	.	8f#/L	.	8f#/L	.
.	.	.	.	8dd/	.	8dd/	.
4G'\	.	4g'\	.	8g/	.	8g/	.
.	.	.	.	8dd/	.	8dd/	.
4A'\	.	4a'\	.	8a/	.	8a/	.
.	.	.	.	8dd/J	.	8dd/J	.
=86	=86	=86	=86	=86	=86	=86	=86
4B-'\	.	4b-'\	.	8b-\L	.	8b-\L	.
.	.	.	.	8dd\	.	8dd\	.
4A'\	.	4a'\	.	8a\	.	8a\	.
.	.	.	.	8dd\	.	8dd\	.
4G'\	.	4g'\	.	8g\	.	8g\	.
.	.	.	.	8dd\J	.	8dd\J	.
=87	=87	=87	=87	=87	=87	=87	=87
4F#\	.	4f#\	.	4f#/	.	4f#/	.
4c\	.	4cc\	.	4dd/ 4d/	.	4ff#/ 4a/ 4d/	.
4A\	.	4a\	.	4ff#/ 4a/ 4d/	.	4aa\ 4a\ 4d\	.
=88	=88	=88	=88	=88	=88	=88	=88
4F#\	.	4f#\	.	4aa\ 4a\ 4d\	.	4ccc\ 4a\ 4d\	.
4r	.	4r	.	4r	.	4r	.
4r	.	4r	.	4r	.	4r	.
=89:!!:	=89:!!:	=89:!!:	=89:!!:	=89:!!:	=89:!!:	=89:!!:	=89:!!:
*>B	*	*>B	*	*>B	*	*>B	*
4r	.	4r	.	(4dd\	p	(4gg\	p
(4Bn\	p	(4d\	p	4g/)	.	4dd\)	.
4G\)	.	4Bn/)	.	4r	.	4r	.
=90	=90	=90	=90	=90	=90	=90	=90
4r	.	4r	.	(4ee-\	.	(4gg\	.
(4E-\	.	(4g\	.	4cc\)	.	4ee-\)	.
4C/)	.	4e-\)	.	4r	.	4r	.
=91	=91	=91	=91	=91	=91	=91	=91
4Fn\	.	(2d\	.	(4c/	.	(4aa-\	.
4G\	.	.	.	4Bn/	.	4gg\	.
4GG/	.	4fn\)	.	4d/)	.	4bn\)	.
=92	=92	=92	=92	=92	=92	=92	=92
2C/	.	(4d\	.	(4fn/	.	(4bn\	.
.	.	4c\)	.	4e-/)	.	4cc\)	.
4r	.	4r	.	4r	.	(8.ddt\L	.
.	.	.	.	.	.	32cc\LL	.
.	.	.	.	.	.	32dd\JJJ)	.
=93	=93	=93	=93	=93	=93	=93	=93
2.r	.	2.r	.	2.r	.	(4ee-\	.
.	.	.	.	.	.	4een\	.
.	.	.	.	.	.	4ff\)	.
=94	=94	=94	=94	=94	=94	=94	=94
2.r	.	2.r	.	2.r	.	(8ff#\L	.
.	.	.	.	.	.	8gg\)	.
.	.	.	.	.	.	(8ffn\	.
.	.	.	.	.	.	8ee-\	.
.	.	.	.	.	.	8dd\	.
.	.	.	.	.	.	8cc\J)	.
=95	=95	=95	=95	=95	=95	=95	=95
4r	.	4r	.	(4cc\	.	(4ff\	.
(4A\	.	(4c\	.	4f/)	.	4cc\)	.
4F\)	.	4A/)	.	4r	.	4r	.
=96	=96	=96	=96	=96	=96	=96	=96
4r	.	4r	.	(4dd\	.	(4ff\	.
(4d\	.	(4f\	.	4b-\)	.	4dd\)	.
4B-\)	.	4d\)	.	4r	.	4r	.
=97	=97	=97	=97	=97	=97	=97	=97
4E-\	.	(2c\	.	(4B-/	.	(4gg\	.
4F\	.	.	.	4A/	.	4ff\)	.
4FF/	.	4e-\)	.	4c/)	.	4a/	.
=98	=98	=98	=98	=98	=98	=98	=98
2BB-/	.	(4c\	.	(4e-/	.	(4a/	.
.	.	4B-/)	.	4d/)	.	4b-\)	.
4r	.	4A/	.	4f'/	.	(8.ccT\L	.
.	.	.	.	.	.	32b-\LL	.
.	.	.	.	.	.	32cc\JJJ)	.
=99	=99	=99	=99	=99	=99	=99	=99
4r	.	2.B-/	.	2f/	.	(4cc#\	.
(4B-\	.	.	.	.	.	4dd\	.
4G\)	.	.	.	4b-\	.	4ee-\)	.
=100	=100	=100	=100	=100	=100	=100	=100
4r	.	2.A/	.	2e-/	.	(4bn\	.
(4A\	.	.	.	.	.	4ccn\	.
4F#\)	.	.	.	(8a/L	.	8dd\L	.
.	.	.	.	8f#/J)	.	8a\J)	.
=101	=101	=101	=101	=101	=101	=101	=101
4G\	.	4G/	.	4d/	.	(8cc/L	.
.	.	.	.	.	.	8b-/	.
4Fn\	.	4r	.	4r	.	8a/	.
.	.	.	.	.	.	8g/	.
4E-\	.	4r	.	4r	.	8f#/	.
.	.	.	.	.	.	8g/J)	.
=102	=102	=102	=102	=102	=102	=102	=102
(2D\	.	4r	.	(2f#/	.	(4a/	.
.	.	4A/	.	.	.	4d/)	.
4F#\	.	[4d\	.	4A/	.	4d'/	.
=103	=103	=103	=103	=103	=103	=103	=103
4G\	.	4d\]	.	4B-/	.	[2.e-/	.
4A\	.	4c\	.	4c/	.	.	.
4G\)	.	4c\	.	4B-/)	.	.	.
=104	=104	=104	=104	=104	=104	=104	=104
2.F#\	.	(4c\	.	2.A/	.	(4e-/]	.
.	.	4A/)	.	.	.	4d/)	.
.	.	[4d\	.	.	.	4d'/	.
=105	=105	=105	=105	=105	=105	=105	=105
(4G\	.	4d\]	.	(4B-/	.	[2.e-/	.
4A\	.	4c\	.	4c/	.	.	.
4G\)	.	4c\	.	4B-/)	.	.	.
=106	=106	=106	=106	=106	=106	=106	=106
2.F#\	.	(4c\	.	2.A/	.	(4e-/]	.
.	.	4A/)	.	.	.	4d/)	.
.	.	[4d\	.	.	.	4d'/	.
=107	=107	=107	=107	=107	=107	=107	=107
(4G\	.	4d\]	.	(4B-/	.	[2.e-/	.
4A\	.	4c\	.	4c/	.	.	.
4G\)	.	4c\	.	4B-/)	.	.	.
=108	=108	=108	=108	=108	=108	=108	=108
2F#\	.	2c\	.	2A/	.	(4e-/]	.
.	.	.	.	.	.	4d/)	.
4r;	.	4r;	.	4r;	.	4r;	.
=109	=109	=109	=109	=109	=109	=109	=109
4G\	f	8G'/L	f	8b-'/L	f	4gg/ 4b-/ 4d/ 4G/	f
.	.	8B-'/	.	8g'/	.	.	.
4r	.	8d'/	.	8b-'/	.	4dd\	.
.	.	8B-'/	.	8g'/	.	.	.
4r	.	8d'/	.	8b-'/	.	4dd\	.
.	.	8B-'/J	.	8g'/J	.	.	.
=110	=110	=110	=110	=110	=110	=110	=110
4GG/	.	8d'/L	.	8b-'/L	.	(8.ddt\L	.
.	.	8B-'/	.	8g'/	.	.	.
.	.	.	.	.	.	32cc#\LL	.
.	.	.	.	.	.	32dd\JJJ)	.
4BB-/	.	8G'/	.	8d'/	.	4r	.
.	.	8B-'/	.	8g'/	.	.	.
4GG/	.	8d'/	.	8b-'/	.	4r	.
.	.	8B-'/J	.	8g'/J	.	.	.
=111	=111	=111	=111	=111	=111	=111	=111
4D\	.	8A'\L	.	8cc'\L	.	4aa\ 4a\ 4d\	.
.	.	8f#'\	.	8a'\	.	.	.
4r	.	8a'\	.	8cc'\	.	4dd\	.
.	.	8f#'\	.	8a'\	.	.	.
4r	.	8a'\	.	8cc'\	.	4dd\	.
.	.	8f#'\J	.	8a'\J	.	.	.
=112	=112	=112	=112	=112	=112	=112	=112
4D\	.	8a'\L	.	8cc'/L	.	(8.ddt\L	.
.	.	8f#'\	.	8a'/	.	.	.
.	.	.	.	.	.	32cc#\LL	.
.	.	.	.	.	.	32dd\JJJ)	.
4F#\	.	8A'\	.	8d'/	.	4r	.
.	.	8d'\	.	8a'/	.	.	.
4D\	.	8a'\	.	8cc'/	.	4r	.
.	.	8f#'\J	.	8a'/J	.	.	.
=113	=113	=113	=113	=113	=113	=113	=113
(4G\	.	2d\	.	(4b-\	.	(4bb-\	.
4Fn\)	.	.	.	4a/)	.	4aa\)	.
4r	.	4r	.	4d'/	.	4dd'\	.
=114	=114	=114	=114	=114	=114	=114	=114
(4E-\	.	2B-/	.	(4g/	.	(4gg\	.
4D\)	.	.	.	4fn/)	.	4ff\)	.
4r	.	4r	.	4B-'/	.	4b-'\	.
=115	=115	=115	=115	=115	=115	=115	=115
(4E-\	.	2B-/	.	(4g/	.	(4gg\	.
4D\)	.	.	.	4f/)	.	4ff\)	.
4r	.	4r	.	4B-'/	.	4b-'\	.
=116	=116	=116	=116	=116	=116	=116	=116
(4C/	.	2G/	.	(4e-/	.	(4ee-\	.
4BB-/)	.	.	.	4d/)	.	4dd\)	.
(8.d\L	.	(8.d\L	.	(8.dd\L	.	(8.dd\L	.
16c\Jk)	.	16c\Jk)	.	16cc\Jk)	.	16cc\Jk)	.
=117	=117	=117	=117	=117	=117	=117	=117
4B-\	.	4B-/	.	4b-\	.	4b-\	.
4A\	.	4A/	.	4a/	.	4a/	.
4G\	.	4G/	.	4g/	.	4g/	.
=118	=118	=118	=118	=118	=118	=118	=118
(4F#\	.	(4F#/	.	(4f#/	.	(4f#/	.
4d\)	.	4d\)	.	4dd\)	.	4dd\)	.
4Fn'\	.	4Fn'/	.	4fn'/	.	4fn'/	.
=119	=119	=119	=119	=119	=119	=119	=119
(4En\	.	(4En/	.	(4en/	.	(4en/	.
4c\)	.	4c\)	.	4cc\)	.	4cc\)	.
4E-'\	.	4E-'/	.	4e-'/	.	4e-'/	.
=120	=120	=120	=120	=120	=120	=120	=120
4D'\	.	4D'/	.	4d'/	.	4d'/	.
4d'\	.	4d'\	.	4dd'\	.	4dd'\	.
4r	.	4r	.	4r	.	4r	.
=121	=121	=121	=121	=121	=121	=121	=121
2.r	.	2.r	.	(4f#/	p	(4ff#\	p
.	.	.	.	4g/	.	4gg\	.
.	.	.	.	4d/)	.	4dd\)	.
=122	=122	=122	=122	=122	=122	=122	=122
2.r	.	2.r	.	(4fn/	.	(4ffn\	.
.	.	.	.	4d/	.	4dd\	.
.	.	.	.	4Bn/)	.	4bn\)	.
=123	=123	=123	=123	=123	=123	=123	=123
4r	.	4r	.	4c'/	.	4cc'\	.
(4c\	p	(4e-\	p	(4a-/	.	(4aa-\	.
4B-\	.	4d\	.	4g/	.	4gg\	.
=124	=124	=124	=124	=124	=124	=124	=124
4A\	.	4c\	.	4f#/	.	4ff#\	.
4B-\)	.	4d\)	.	4g/	.	4gg\	.
4r	.	4r	.	4B-/)	.	4b-\)	.
=125	=125	=125	=125	=125	=125	=125	=125
4r	.	4r	.	(4A-/	.	(4a-/	.
(4A-\	.	(4c\	.	4fn/	.	4ffn\	.
4G\	.	4B-/	.	4e-/	.	4ee-\	.
=126	=126	=126	=126	=126	=126	=126	=126
4F\	.	4A-/	.	4d/	.	4dd\	.
4G\)	.	4B-/)	.	4e-/)	.	4ee-\	.
4r	.	(4G/	.	4r	.	4g/)	.
=127	=127	=127	=127	=127	=127	=127	=127
4r	.	4F/	.	4r	.	(4f/	.
(4F\	.	4A-/	.	(4d-/	.	4dd-\	.
4E-\	.	4G/	.	4c/	.	4cc\	.
=128	=128	=128	=128	=128	=128	=128	=128
4D\	.	4F/	.	4Bn/	.	4bn\	.
4E-\)	.	4G/)	.	4c/)	.	4cc\)	.
4r	.	4r	.	4r	.	4g/	.
=129	=129	=129	=129	=129	=129	=129	=129
8D\L	f	8An/L	f	8c/L	f	2.f#/	f
8D\	.	8A/	.	8c/	.	.	.
8D\	.	8A/	.	8c/	.	.	.
8D\	.	8A/	.	8c/	.	.	.
8D\	.	8A/	.	8c/	.	.	.
8D\J	.	8A/J	.	8c/J	.	.	.
=130	=130	=130	=130	=130	=130	=130	=130
8FF#/L	.	8d\L	.	8an/L	.	2.cc\	.
8FF#/	.	8d\	.	8a/	.	.	.
8FF#/	.	8d\	.	8a/	.	.	.
8FF#/	.	8d\	.	8a/	.	.	.
8FF#/	.	8d\	.	8a/	.	.	.
8FF#/J	.	8d\J	.	8a/J	.	.	.
=131	=131	=131	=131	=131	=131	=131	=131
8GG/L	.	8g\L	.	8dn/L	.	2.bn\	.
8GG/	.	8g\	.	8d/	.	.	.
8GG/	.	8g\	.	8d/	.	.	.
8GG/	.	8g\	.	8d/	.	.	.
8GG/	.	8g\	.	8d/	.	.	.
8GG/J	.	8g\J	.	8d/J	.	.	.
=132	=132	=132	=132	=132	=132	=132	=132
8G\L	.	8d\L	.	8bn\L	.	2.ff\	.
8G\	.	8d\	.	8b\	.	.	.
8G\	.	8d\	.	8b\	.	.	.
8G\	.	8d\	.	8b\	.	.	.
8G\	.	8d\	.	8b\	.	.	.
8G\J	.	8d\J	.	8b\J	.	.	.
=133	=133	=133	=133	=133	=133	=133	=133
4C/	.	4c\	.	4cc\	.	4ee-\	.
4r	.	4r	.	4r	.	(16gg\LL	.
.	.	.	.	.	.	16ff\	.
.	.	.	.	.	.	16ee-\	.
.	.	.	.	.	.	16dd\JJ	.
4r	.	4r	.	4r	.	16cc/LL	.
.	.	.	.	.	.	16b-/	.
.	.	.	.	.	.	16a/	.
.	.	.	.	.	.	16g/JJ)	.
=134	=134	=134	=134	=134	=134	=134	=134
(2AAn/	.	(2c\	.	(2e-/	.	(2f#/	.
4BBn/)	.	4A-/)	.	4d/)	.	4fn/)	.
=135	=135	=135	=135	=135	=135	=135	=135
4C/	.	4G/	.	4c/	.	4e-/	.
4r	.	4r	.	4r	.	(16gg\LL	.
.	.	.	.	.	.	16ff\	.
.	.	.	.	.	.	16ee-\	.
.	.	.	.	.	.	16dd\JJ	.
4r	.	4r	.	4r	.	16cc/LL	.
.	.	.	.	.	.	16b-/	.
.	.	.	.	.	.	16a/	.
.	.	.	.	.	.	16g/JJ)	.
=136	=136	=136	=136	=136	=136	=136	=136
(2AA/	.	(2c\	.	(2e-/	.	(2f#/	.
4BBn/)	.	4A-/)	.	4d/)	.	4fn/)	.
=137	=137	=137	=137	=137	=137	=137	=137
4C/	.	4G/	.	4c/	.	4e-/	.
4r	.	4r	.	4r	.	4r	.
4r	.	4r	.	4r	.	4r	.
=138	=138	=138	=138	=138	=138	=138	=138
2.r	.	2.r	.	(4a-/	p	(4aa-\	p
.	.	.	.	4en/	.	4een\	.
.	.	.	.	4f/	.	4ff\	.
=139	=139	=139	=139	=139	=139	=139	=139
2.r	.	2.r	.	4c#/	.	4cc#\	.
.	.	.	.	4d/	.	4dd\	.
.	.	.	.	4f/)	.	4ff\)	.
=140	=140	=140	=140	=140	=140	=140	=140
2.r	.	8G/L	p	4e-/	.	4ee-\	.
.	.	8G/	.	.	.	.	.
.	.	8G/	.	8r	.	8r	.
.	.	8G/	.	8cc\L	.	8ee-\L	.
.	.	8G/	.	8cc\	.	8ee-\	.
.	.	8G/J	.	8cc\J	.	8ee-\J	.
=141	=141	=141	=141	=141	=141	=141	=141
2.r	.	8G/L	.	(4ee-\	.	(4gg\	.
.	.	8G/	.	.	.	.	.
.	.	8G/	.	4cc\	.	4ee-\	.
.	.	8G/	.	.	.	.	.
.	.	8G/	.	4e-/)	.	4ccn\)	.
.	.	8G/J	.	.	.	.	.
=142	=142	=142	=142	=142	=142	=142	=142
2.r	.	8G/L	.	4d/	.	4bn\	.
.	.	8G/	.	.	.	.	.
.	.	8G/	.	8r	.	8r	.
.	.	8G/	.	8bn\L	.	8dd\L	.
.	.	8G/	.	8b\	.	8dd\	.
.	.	8G/J	.	8b\J	.	8dd\J	.
=143	=143	=143	=143	=143	=143	=143	=143
2.r	.	8G/L	.	(4dd\	.	(4ff\	.
.	.	8G/	.	.	.	.	.
.	.	8G/	.	4f/	.	4dd\	.
.	.	8G/	.	.	.	.	.
.	.	8G/	.	4d/)	.	4bn\)	.
.	.	8G/J	.	.	.	.	.
=144	=144	=144	=144	=144	=144	=144	=144
4C/	f	4G/	f	4e-/	f	8cc/L	f
.	.	.	.	.	.	8c/	.
4E-\	.	4r	.	4r	.	8c/	.
.	.	.	.	.	.	8c/	.
4C/	.	4r	.	4r	.	8c/	.
.	.	.	.	.	.	8c/J	.
=145	=145	=145	=145	=145	=145	=145	=145
!	!	!	!	!	!	! 16dP/	!
4G\	.	4G/	.	8r	.	(8cp/L	.
.	.	.	.	8d/L	.	16Bn/L	.
.	.	.	.	.	.	16c/JJ)	.
4GG/	.	4Bn/	.	8d/	.	4B/	.
.	.	.	.	8d/	.	.	.
4r	.	4G/	.	8d/	.	4r	.
.	.	.	.	8d/J	.	.	.
=146	=146	=146	=146	=146	=146	=146	=146
!	!	!	!	! 16e-P/	!	!	!
4C/	.	4c\	.	(8dp/L	.	8r	.
.	.	.	.	16c/L	.	8e-/L	.
.	.	.	.	16d/JJ)	.	.	.
4r	.	4C/	.	4c/	.	8e-/	.
.	.	.	.	.	.	8e-/	.
4C/	.	4r	.	4r	.	8e-/	.
.	.	.	.	.	.	8e-/J	.
=147	=147	=147	=147	=147	=147	=147	=147
!	!	!	!	!	!	! 16fP/	!
4D\	.	2F/	.	8r	.	(8e-p/L	.
.	.	.	.	8f/L	.	16d/L	.
.	.	.	.	.	.	16e-/JJ)	.
4DD/	.	.	.	8f/	.	4d/	.
.	.	.	.	8f/	.	.	.
4D\	.	4Bn/	.	8f/	.	4r	.
.	.	.	.	8f/J	.	.	.
=148	=148	=148	=148	=148	=148	=148	=148
!	!	!	!	! 16gP/	!	!	!
4E-\	.	(4Bn/	.	(8fp/L	.	8r	.
.	.	.	.	16e-/L	.	8g/L	.
.	.	.	.	16f/JJ)	.	.	.
4G\	.	4c\)	.	4e-/	.	8g/	.
.	.	.	.	.	.	8g/	.
4c\	.	4e-'\	.	4r	.	8g/	.
.	.	.	.	.	.	8g/J	.
=149	=149	=149	=149	=149	=149	=149	=149
!	!	!	!	!	!	! 16ccP/	!
4E-\	.	4g\	.	8r	.	(8b-p/L	.
.	.	.	.	8cc#\L	.	16a/L	.
.	.	.	.	.	.	16b-/JJ)	.
4EE-/	.	4B-/	.	8cc#\	.	4g/	.
.	.	.	.	8cc#\	.	.	.
4E-\	.	(8B-/L	.	8cc#\	.	4gg\	.
.	.	8G/J)	.	8cc#\J	.	.	.
=150	=150	=150	=150	=150	=150	=150	=150
!	!	!	!	! 16ee-P/	!	!	!
4D\	.	4An/	.	(8ddp\L	.	4ff#\	.
.	.	.	.	16cc#x\Lxx	.	.	.
.	.	.	.	16dd\JJ)	.	.	.
4r	.	8f#\L	.	8an/L	.	8r	.
.	.	8f#\	.	8a/	.	8cc\L	.
4r	.	8f#\	.	8a/	.	8cc\	.
.	.	8f#\J	.	8a/J	.	8cc\J	.
=151	=151	=151	=151	=151	=151	=151	=151
4D\	.	4c\	.	4a/	.	8ff#\L	.
.	.	.	.	.	.	8cc\	.
4F#\	.	4r	.	8r	.	8aan\	.
.	.	.	.	8c/L	.	8cc\	.
4A\	.	4r	.	8c/	.	8ccc\	.
.	.	.	.	8c/J	.	8cc\J	.
=152	=152	=152	=152	=152	=152	=152	=152
4F#\	.	4D/	.	8f#/L	.	8aa\L	.
.	.	.	.	8c/	.	8cc\	.
4D\	.	4F#/	.	8a/	.	8ff#\	.
.	.	.	.	8c/	.	8cc\	.
4r	.	4A/	.	8cc/	.	8cc\	.
.	.	.	.	8c/J	.	8cc\J	.
=153	=153	=153	=153	=153	=153	=153	=153
4DD/	.	4F#/	.	8a/L	.	8ff#x\Lxx	.
.	.	.	.	8c/	.	8ccx\	.
4FF#/	.	4D/	.	8f#/	.	8aax\	.
.	.	.	.	8c/	.	8ccx\	.
4AA/	.	4r	.	8c/	.	8cccx\	.
.	.	.	.	8c/J	.	8ccx\J	.
=154	=154	=154	=154	=154	=154	=154	=154
4FF#/	.	4d\	.	8f#/L	.	8aax\L	.
.	.	.	.	8c/	.	8ccx\	.
4DD/	.	4f#\	.	8a/	.	8ff#x\	.
.	.	.	.	8c/	.	8ccx\	.
4r	.	4a\	.	8cc/	.	8ccx\	.
.	.	.	.	8c/J	.	8ccx\J	.
=155	=155	=155	=155	=155	=155	=155	=155
4D\	.	4f#\	.	8a/L	.	8ff#x\L	.
.	.	.	.	8c/	.	8ccx\	.
4F#\	.	4d\	.	8f#/	.	8aax\	.
.	.	.	.	8c/	.	8ccx\	.
4A\	.	4f#\	.	(8c/	.	8cccx\	.
.	.	.	.	8d/J)	.	8ccx\J	.
=156	=156	=156	=156	=156	=156	=156	=156
4G\	.	4g\	.	4d/	.	8bb-x\L	.
.	.	.	.	.	.	8gx\	.
4r	.	4r	.	4r	.	8ax\	.
.	.	.	.	.	.	8b-x\	.
4r	.	4r	.	4r	.	8ccx\	.
.	.	.	.	.	.	8ddx\J	.
=157	=157	=157	=157	=157	=157	=157	=157
(4F#\	.	(4a\	.	(4cc\	.	(4ee-\	.
4G\)	.	4d\)	.	4b-\)	.	4dd\)	.
4r	.	4r	.	4r	.	4r	.
=158	=158	=158	=158	=158	=158	=158	=158
!	!	!	!	! 16b-P/	!	! 16ddP/	!
4C/	p	(4e-\	p	4ap/	p	4ccp\	p
4D\	.	4d\	.	(4g/	.	(4b-\	.
4D\	.	4c\)	.	4f#/)	.	4a/)	.
=159	=159	=159	=159	=159	=159	=159	=159
4G\	.	4B-/	.	4g/	.	8b-\L	.
.	.	.	.	.	.	8bb-\	f
4r	.	4r	.	4r	.	8gg\	.
.	.	.	.	.	.	8ffn\	.
4r	.	4r	.	4r	.	8ee-\	.
.	.	.	.	.	.	8dd\J	.
=160	=160	=160	=160	=160	=160	=160	=160
(4D\	f	(4f#\	f	(4a/	f	(4cc\	.
4E-\)	.	4g\)	.	4g/)	.	4b-\)	.
4r	.	4r	.	4r	.	4r	.
=161	=161	=161	=161	=161	=161	=161	=161
!	!	!	!	!	!	! 16b-P/	!
4C/	p	(4c\	p	(4e-/	p	4a-p/	p
4D\	.	4B-/	.	4d/	.	(4g/	.
4DD/	.	4A/)	.	4c/)	.	4f#/)	.
=162	=162	=162	=162	=162	=162	=162	=162
4GG/	.	4G/	.	4B-/	.	4g/	.
4r	.	4r	.	4r	.	4r	.
4r	.	4r	.	4r	.	4d/	f
=163	=163	=163	=163	=163	=163	=163	=163
(4A\	f	(4c\	f	(4e-/	f	(4f#/	.
4B-\)	.	4d\)	.	4d/)	.	4g/)	.
4r	.	4r	.	4r	.	4d'/	.
=164	=164	=164	=164	=164	=164	=164	=164
(4F#\	.	(4e-\	.	(4a/	.	(4cc\	.
4G\)	.	4d\)	.	4g/)	.	4b-\)	.
4r	.	4r	.	4r	.	4g'/	.
=165	=165	=165	=165	=165	=165	=165	=165
(4C/	.	(4f#\	.	(4a/	.	(4ee-\	.
4BB-/)	.	4g\)	.	4b-\)	.	4dd\)	.
4r	.	4r	.	4r	.	4g'/	.
=166	=166	=166	=166	=166	=166	=166	=166
(4C#/	.	(4en\	.	(4gg\	.	(4bb-\	.
4D\)	.	4f#\)	.	4ff#\)	.	4aa\)	.
4r	.	4r	.	4d/	.	4r	.
=167	=167	=167	=167	=167	=167	=167	=167
2.r	.	2.r	.	(4e-/	.	2.r	.
.	.	.	.	4f#/	.	.	.
.	.	.	.	4g/)	.	.	.
=168	=168	=168	=168	=168	=168	=168	=168
4C#/	.	(8G/L	.	[4A/	.	2.r	.
.	.	8En/	.	.	.	.	.
4C#/	.	8G/	.	(8.A/L]	.	.	.
.	.	8E/	.	.	.	.	.
.	.	.	.	16B-/k	.	.	.
4C#/	.	8G/	.	8.A/	.	.	.
.	.	8E/J)	.	.	.	.	.
.	.	.	.	16B-/Jk)	.	.	.
=169	=169	=169	=169	=169	=169	=169	=169
(4D\	.	(4F#/	.	(4A/	.	2.r	.
4F#\	.	4c\	.	4e-/	.	.	.
4G\)	.	4B-/)	.	4d/)	.	.	.
=170	=170	=170	=170	=170	=170	=170	=170
!	!	! 16B-P/	!	! 16dP/	!	!	!
(4Cn/	.	(4Ap/	.	(4cp/	.	4r	.
4D\	.	4G/	.	4B-/	.	4r	.
4BBn/)	.	4Fn/)	.	4A-/)	.	(4dd\	.
=171	=171	=171	=171	=171	=171	=171	=171
(4C/	.	(4E-/	.	(4G/	.	4ee-\	.
4D\	.	4A/	.	4c/	.	4ff#\	.
4E-\)	.	4G/)	.	4B-/)	.	4gg\)	.
=172	=172	=172	=172	=172	=172	=172	=172
4C#/	.	(8en\L	.	(8g/L	.	[4a/	.
.	.	8c#\	.	8en/	.	.	.
4C#/	.	8e\	.	8g/	.	(8.a/L]	.
.	.	8c#\	.	8e/	.	.	.
.	.	.	.	.	.	16b-/k	.
4C#/	.	8e\	.	8g/	.	8.a/	.
.	.	8G\J)	.	8e/J)	.	.	.
.	.	.	.	.	.	16b-/Jk)	.
=173	=173	=173	=173	=173	=173	=173	=173
(4D\	.	(4F#/	.	4d/	.	(4a/	.
4F#\	.	4A/	.	(4cc\	.	4ee-\	.
4G\)	.	4B-/)	.	4b-\)	.	4dd\)	.
=174	=174	=174	=174	=174	=174	=174	=174
!	!	!	!	! 16b-P/	!	! 16ddP/	!
4c\	.	4e-\	.	4ap/	.	4ccp\	.
4d\	.	4d\	.	4g/	.	4b-\	.
4D\	.	4cn\	.	4f#/	.	4a/	.
=175	=175	=175	=175	=175	=175	=175	=175
4G'\	.	4B-'/	.	4g/	.	4g/	.
4r	.	4r	.	(16e-/LK	p	(16ee-\LK	p
.	.	.	.	8.d/J)	.	8.dd\J)	.
4G'\	p	4B-'/	p	(16c#/LK	.	(16cc#\LK	.
.	.	.	.	8.d/J)	.	8.dd\J)	.
=176	=176	=176	=176	=176	=176	=176	=176
4F#'\	.	4A'/	.	(16e-/LK	.	(16ee-\LK	.
.	.	.	.	8.d/J)	.	8.dd\J)	.
4r	.	4r	.	(16c#/LK	.	(16cc#\LK	.
.	.	.	.	8.d/J)	.	8.dd\J)	.
4A'\	.	4c'\	.	(16e-/LK	.	(16ee-\LK	.
.	.	.	.	8.d/J)	.	8.dd\J)	.
=177	=177	=177	=177	=177	=177	=177	=177
4G'\	.	4B-'/	.	(16c#/LK	.	(16cc#\LK	.
.	.	.	.	8.d/J)	.	8.dd\J)	.
4r	.	4r	.	(16g/LK	.	(16gg\LK	.
.	.	.	.	8.f/J)	.	8.ff\J)	.
4BB-/	.	[4G/	.	(16e-/LK	.	(16ee-\LK	.
.	.	.	.	8.d/J)	.	8.dd\J)	.
=178	=178	=178	=178	=178	=178	=178	=178
4AA/	.	4G/]	.	(16Bn/LK	.	(16bn\LK	.
.	.	.	.	8.cn/J)	.	8.ccn\J)	.
4D\	.	4F#/	.	(16G#/LK	.	(16g#/LK	.
.	.	.	.	8.A/J)	.	8.a/J)	.
4FF#/	.	4A/	.	(16d/LK	.	(16dd\LK	.
.	.	.	.	8.c/J)	.	8.cc\J)	.
=179	=179	=179	=179	=179	=179	=179	=179
4GG/	.	(16F#/LK	.	(16A/LK	.	(16a/LK	.
.	.	8.G/J)	.	8.B-/J)	.	8.b-/J)	.
4r	.	4r	.	(16c#/LK	.	(16cc#\LK	.
.	.	.	.	8.d/J)	.	8.dd\J)	.
4G'\	.	4B-'/	.	(16e-/LK	.	(16ee-\LK	.
.	.	.	.	8.d/J)	.	8.dd\J)	.
=180	=180	=180	=180	=180	=180	=180	=180
4F#'\	.	4A'/	.	(16c#/LK	.	(16cc#\LK	.
.	.	.	.	8.d/J)	.	8.dd\J)	.
4r	.	4r	.	(16e-/LK	.	(16ee-\LK	.
.	.	.	.	8.d/J)	.	8.dd\J)	.
4A'\	.	4c'\	.	(16c#/LK	.	(16cc#\LK	.
.	.	.	.	8.d/J)	.	8.dd\J)	.
=181	=181	=181	=181	=181	=181	=181	=181
4G'\	.	4B-'/	.	(16e-/LK	.	(16ee-\LK	.
.	.	.	.	8.d/J)	.	8.dd\J)	.
4r	.	4r	.	(16g/LK	.	(16gg\LK	.
.	.	.	.	8.f/J)	.	8.ff\J)	.
4BB-/	.	4G/	.	(16e-/LK	.	(16ee-\LK	.
.	.	.	.	8.d/J)	.	8.dd\J)	.
=182	=182	=182	=182	=182	=182	=182	=182
4C/	.	(16Bn/LK	.	(16d/LK	.	(16dd\LK	.
.	.	8.c/J)	.	8.e-/J)	.	8.ee-\J)	.
4D\	.	(16B-/LK	.	(16d/LK	.	(16dd\LK	.
.	.	8.A/J)	.	8.cn/J)	.	8.ccn\J)	.
4DD/	.	(16G/LK	.	(16B-/LK	.	(16b-/LK	.
.	.	8.F#/J)	.	8.A/J)	.	8.a/J)	.
=183	=183	=183	=183	=183	=183	=183	=183
4GG/	f	(16G/LL	f	8G/	.	8g/	.
.	.	16A/	.	.	.	.	.
.	.	16B-/	.	4gg\	f	4bb-\	f
.	.	16c/JJ)	.	.	.	.	.
8BB-/L	.	4d'\	.	.	.	.	.
8AA/	.	.	.	4gg\	.	4bb-\	.
8BB-/	.	4r	.	.	.	.	.
8GG/J	.	.	.	8gg\	.	8bb-\	.
=184	=184	=184	=184	=184	=184	=184	=184
4D\	.	(16a\LL	.	8r	.	8r	.
.	.	16g\	.	.	.	.	.
.	.	16f#\	.	4ff#\	.	4aa\	.
.	.	16en\JJ)	.	.	.	.	.
8D\L	.	4d'\	.	.	.	.	.
8E-\	.	.	.	4ff#\	.	4aa\	.
8D\	.	4r	.	.	.	.	.
8C\J	.	.	.	8ff#\	.	8aa\	.
=185	=185	=185	=185	=185	=185	=185	=185
4BBn/	.	(16d\LL	.	8r	.	8r	.
.	.	16e-\	.	.	.	.	.
.	.	16fn\	.	4ffn\	.	4aa-\	.
.	.	16e-\JJ)	.	.	.	.	.
8Bn\L	.	4d'\	.	.	.	.	.
8c\	.	.	.	4ff\	.	4aa-\	.
8d\	.	4r	.	.	.	.	.
8B\J	.	.	.	8ff\	.	8aa-\	.
=186	=186	=186	=186	=186	=186	=186	=186
4c\	.	(16c\LL	.	8r	.	8r	.
.	.	16d\	.	.	.	.	.
.	.	16en\	.	4een\	.	4gg\	.
.	.	16d\JJ)	.	.	.	.	.
8C/L	.	4c'\	.	.	.	.	.
8D/	.	.	.	4ee\	.	4gg\	.
8C/	.	4r	.	.	.	.	.
8BB-/J	.	.	.	8ee\	.	8gg\	.
=187	=187	=187	=187	=187	=187	=187	=187
4AA/	.	(16c\LL	.	8r	.	8r	.
.	.	16d\	.	.	.	.	.
.	.	16e-\	.	4ee-\	.	4ff#\	.
.	.	16d\JJ)	.	.	.	.	.
8A\L	.	4c'\	.	.	.	.	.
8B-\	.	.	.	4ee-\	.	4ff#\	.
8c\	.	4r	.	.	.	.	.
8A\J	.	.	.	8ee-\	.	8ff#\	.
=188	=188	=188	=188	=188	=188	=188	=188
4B-\	.	(16B-\LL	.	8r	.	8r	.
.	.	16c\	.	.	.	.	.
.	.	16d\	.	4dd\	.	4gg\	.
.	.	16c\JJ)	.	.	.	.	.
8G\L	.	4B-'/	.	.	.	.	.
8A\	.	.	.	4dd\	.	4gg\	.
8B-\	.	4r	.	.	.	.	.
8BB-\J	.	.	.	8dd\	.	8gg\	.
=189	=189	=189	=189	=189	=189	=189	=189
4C/	.	8g\L	.	8ee-\L	.	8ee-\L	.
.	.	8f\	.	8dd\	.	8dd\	.
4r	.	8e-\	.	8cc\	.	8cc\	.
.	.	8d\	.	8b-\	.	8b-\	.
4r	.	8c\	.	8a\	.	8a\	.
.	.	8B-\J	.	8g\J	.	8g\J	.
=190	=190	=190	=190	=190	=190	=190	=190
(4C/	.	(4A/	.	4d/	.	8f#/L	.
.	.	.	.	.	.	8dd/	.
4BB-/	.	4B-/	.	4dd\	.	8g/	.
.	.	.	.	.	.	8dd/	.
4AA/)	.	4c\)	.	4dd\	.	8a/	.
.	.	.	.	.	.	8dd/J	.
=191	=191	=191	=191	=191	=191	=191	=191
(4GG/	.	(4d\	.	(4dd\	.	8b-\L	.
.	.	.	.	.	.	8dd\	.
4AA/	.	4c\	.	4ff#\	.	8a\	.
.	.	.	.	.	.	8dd\	.
4BB-/)	.	4B-/)	.	4gg\)	.	8g\	.
.	.	.	.	.	.	8dd\J	.
=192	=192	=192	=192	=192	=192	=192	=192
4F#'\	.	4f#'\	.	8f#/L	.	8f#/L	.
.	.	.	.	8dd/	.	8dd/	.
4G'\	.	4g'\	.	8g/	.	8g/	.
.	.	.	.	8dd/	.	8dd/	.
4A'\	.	4a'\	.	8a/	.	8a/	.
.	.	.	.	8dd/J	.	8dd/J	.
=193	=193	=193	=193	=193	=193	=193	=193
4B-'\	.	4b-'\	.	8b-\L	.	8b-\L	.
.	.	.	.	8dd\	.	8dd\	.
4A'\	.	4a'\	.	8a\	.	8a\	.
.	.	.	.	8dd\J	.	8dd\J	.
8G'\L	.	8b-'\L	.	8g/L	.	8g/L	.
8Fn'\J	.	8a'\J	.	16a/L	.	16a/L	.
.	.	.	.	16b-/JJ	.	16b-/JJ	.
=194	=194	=194	=194	=194	=194	=194	=194
8E-'/L	.	8g'\L	.	8cc\L	.	8cc\L	.
8D'/	.	8fn'\	.	8dd\J	.	8dd\J	.
8C'/	.	8e-'\	.	4ee-\	.	4ee-\	.
8AA'/	.	8c'\	.	.	.	.	.
8D'/xx	.	8A'\	.	4ff#/ 4a/ 4d/	.	4ff#/ 4a/ 4d/	.
8DD'/Jxx	.	8d'\J	.	.	.	.	.
=195	=195	=195	=195	=195	=195	=195	=195
2GG/	.	2d\ 2B-\	.	2gg/ 2b-/ 2d/	.	2gg/ 2b-/ 2d/	.
4r	.	4r	.	4r	.	4r	.
==:|!	==:|!	==:|!	==:|!	==:|!	==:|!	==:|!	==:|!
*-	*-	*-	*-	*-	*-	*-	*-
!!!RWG: Appoggiaturas of spine 'Violino 1' need manual editing in measures: 37, 39, 41, 65, 145, 147, 149, 158, 161, 174
!!!RWG: Appoggiaturas of spine 'Violino 2' need manual editing in measures: 38, 40, 61, 65, 146, 148, 150, 158, 170, 174
!!!RWG: Appoggiaturas of spine 'Viola' need manual editing in measures: 40, 61, 170
!!!RWG: Key is interpreted using the Humdrum key tool.
!!!AFT: stage2
!!!END: 1994/06/16
!!!KEY: 2139995797
!!!EMD: Converted from MuseData to Humdrum Dec 16, 2000, by Andreas Kornstaedt using muse2kern.
!!!EMD: Manual editing by Craig Sapp, Nov 2001
